img/SAUNA/icon/sauna.svg

<svg width="30" height="30" viewBox="0 0 30 30" fill="none" xmlns="http://www.w3.org/2000/svg">
<path d="M2 15.8232C2.14409 15.2726 2.38424 14.8041 2.84319 14.4878C2.89122 14.4526 2.90722 14.3062 2.89655 14.2242C2.74713 13.0938 2.58703 11.9693 2.42693 10.8389C2.33087 10.1771 2.70443 9.69098 3.31814 9.69098C8.69745 9.69098 14.0768 9.69098 19.4561 9.69098C20.0858 9.69098 20.4487 10.183 20.3526 10.8624C20.1925 11.9869 20.0324 13.1173 19.883 14.2476C19.8723 14.3355 19.931 14.4819 19.9951 14.5346C20.5181 14.9446 20.7796 15.4893 20.7796 16.1921C20.7796 16.7778 20.7849 17.3635 20.7796 17.9492C20.7742 19.0093 20.2245 19.7297 19.2693 19.9347C19.1946 19.9523 19.0878 20.0226 19.0772 20.087C18.9544 20.8835 18.853 21.6801 18.7356 22.5234C18.9117 22.5234 19.0665 22.5234 19.2213 22.5234C19.7229 22.5234 20.2192 22.5117 20.7209 22.5293C20.9023 22.5352 20.9663 22.4707 20.9984 22.2775C21.3773 20.0108 21.9429 17.7969 22.8181 15.7002C23.688 13.6151 24.7713 11.694 26.3456 10.1478C26.5591 9.93697 26.7726 9.72026 27.0874 9.70269C27.5624 9.67927 27.8346 9.97797 28 10.4289C28 10.5578 28 10.6867 28 10.8214C27.8879 11.0029 27.8079 11.2255 27.6638 11.3602C26.9647 12.0103 26.3777 12.76 25.8654 13.58C24.3017 16.0633 23.3945 18.8395 22.8288 21.7679C22.6901 22.4766 22.642 23.2087 22.4286 23.8881C21.7028 26.2309 19.8136 27.7478 17.5616 27.8884C16.9265 27.9294 16.2808 27.7361 15.6617 28.0406C15.539 28.0992 15.3789 28.0934 15.2348 28.0934C12.6732 28.0934 10.1063 28.1109 7.54474 28.0875C6.53079 28.0758 5.70895 27.5662 5.06855 26.7111C4.58292 26.0552 4.40148 25.2879 4.31609 24.4504C4.16133 23.0154 3.92652 21.5863 3.7344 20.1573C3.71305 20.0167 3.67036 19.9581 3.53695 19.9288C3.33949 19.8878 3.14204 19.8293 2.96059 19.7356C2.42159 19.4603 2.1601 18.9449 2.01067 18.3416C2 17.4924 2 16.6548 2 15.8232ZM3.70772 18.0781C3.84113 18.0781 3.94787 18.0781 4.0546 18.0781C8.95361 18.0781 13.8473 18.0781 18.7463 18.0781C18.8157 18.0781 18.8851 18.0956 18.9491 18.0722C19.0025 18.0546 19.0772 17.9961 19.0772 17.9492C19.0878 17.3401 19.0825 16.731 19.0825 16.116C13.938 16.116 8.82553 16.116 3.70772 16.116C3.70772 16.7661 3.70772 17.3928 3.70772 18.0781ZM8.29187 19.9523C8.34524 20.6317 8.39327 21.2876 8.44663 21.9436C8.54803 23.3083 8.64943 24.6788 8.76149 26.0434C8.76683 26.1079 8.84688 26.2133 8.89491 26.2133C9.43391 26.225 9.97291 26.2192 10.5172 26.2192C10.5172 24.1107 10.5172 22.0315 10.5172 19.9464C9.77545 19.9523 9.04967 19.9523 8.29187 19.9523ZM7.65681 11.5593C7.72085 12.3734 7.78489 13.1583 7.83292 13.9431C7.8436 14.1539 7.89696 14.2301 8.09975 14.2242C8.83621 14.2125 9.57266 14.2184 10.3091 14.2184C10.3838 14.2184 10.4532 14.2067 10.5279 14.2008C10.5279 13.3105 10.5279 12.4437 10.5279 11.5593C9.56732 11.5593 8.63342 11.5593 7.65681 11.5593ZM14.9306 14.2008C14.9947 13.3105 15.064 12.4437 15.1281 11.5652C14.1461 11.5652 13.2069 11.5652 12.2677 11.5652C12.2677 12.4554 12.2677 13.3281 12.2677 14.2008C13.1589 14.2008 14.0341 14.2008 14.9306 14.2008ZM14.3062 24.4035C15.9659 26.7521 19.0612 26.3246 20.2139 24.4035C18.25 24.4035 16.2968 24.4035 14.3062 24.4035ZM7.05378 26.0844C6.89368 24.0052 6.73892 21.9846 6.58949 19.964C6.18391 19.964 5.80501 19.964 5.42611 19.964C5.63957 21.5805 5.83703 23.1794 6.0665 24.7725C6.15189 25.3699 6.49877 25.7916 7.05378 26.0844ZM14.4877 19.9581C13.7299 19.9581 12.9988 19.9581 12.257 19.9581C12.257 20.9011 12.257 21.8323 12.257 22.7812C12.8974 22.2892 13.6178 22.6289 14.2956 22.4825C14.3596 21.6449 14.4236 20.8191 14.4877 19.9581ZM16.633 14.2184C17.0386 14.2184 17.4228 14.2008 17.8071 14.2242C18.0632 14.2359 18.2287 14.1891 18.218 13.8552C18.2126 13.7205 18.2553 13.58 18.2713 13.4453C18.3567 12.8244 18.4421 12.2036 18.5275 11.5652C17.9511 11.5652 17.3961 11.5652 16.8305 11.5652C16.7664 12.4496 16.7024 13.3105 16.633 14.2184ZM5.9491 11.5652C5.37808 11.5652 4.82841 11.5652 4.25205 11.5652C4.36946 12.4203 4.48153 13.252 4.59893 14.0837C4.60427 14.1305 4.66831 14.2066 4.70033 14.2066C5.18062 14.2125 5.65558 14.2125 6.14655 14.2125C6.08251 13.3105 6.01314 12.4437 5.9491 11.5652ZM17.0172 22.5C17.1346 21.6391 17.2521 20.8015 17.3695 19.9523C16.9799 19.9523 16.601 19.9523 16.1954 19.9523C16.1314 20.8015 16.0673 21.6449 16.0033 22.5C16.3608 22.5 16.6757 22.5 17.0172 22.5ZM13.4044 26.2133C13.0201 25.6042 12.6305 24.9951 12.2623 24.4211C12.2623 24.9833 12.2623 25.5925 12.2623 26.2133C12.6626 26.2133 13.0415 26.2133 13.4044 26.2133Z" fill="#2F2F2F"/>
<path d="M9.04958 5.89571C9.12429 5.5033 9.26838 4.84733 9.36978 4.17964C9.40713 3.92194 9.39112 3.62909 9.32175 3.37139C9.19367 2.88527 9.36444 2.38158 9.77536 2.18244C10.1863 1.97745 10.6559 2.16487 10.88 2.61585C11.1789 3.21911 11.1842 3.85751 11.0615 4.50763C10.9708 4.99375 10.8427 5.47987 10.7786 5.97185C10.7466 6.21198 10.7893 6.49311 10.8694 6.72153C11.0562 7.23694 10.9281 7.76406 10.5225 7.99834C10.0742 8.25018 9.59392 8.06862 9.34843 7.55907C9.11896 7.09637 9.04424 6.74496 9.04958 5.89571Z" fill="#2F2F2F"/>
<path d="M13.8846 3.88662C13.7566 4.54845 13.6285 5.20443 13.5004 5.86626C13.4417 6.18253 13.463 6.48123 13.5965 6.77993C13.8046 7.23677 13.6338 7.76975 13.2336 7.99817C12.8173 8.23244 12.337 8.08016 12.0969 7.62918C11.6966 6.88536 11.702 6.09468 11.8621 5.28642C11.9261 4.95844 11.9902 4.63631 12.0702 4.31418C12.1556 3.97448 12.1663 3.65235 12.0382 3.31265C11.8781 2.87338 12.0969 2.37554 12.4918 2.18227C12.8867 1.98899 13.3456 2.15298 13.5698 2.56882C13.7886 2.9788 13.8686 3.41807 13.8846 3.88662Z" fill="#2F2F2F"/>
</svg>

<svg width="30" height="30" viewBox="0 0 30 30" fill="none" xmlns="http://www.w3.org/2000/svg"><path d="M2 15.823c.144-.55.384-1.019.843-1.335.048-.035.064-.182.054-.264-.15-1.13-.31-2.255-.47-3.385-.096-.662.277-1.148.891-1.148h16.138c.63 0 .993.492.897 1.171-.16 1.125-.32 2.255-.47 3.386a.4.4 0 00.112.287c.523.41.785.954.785 1.657 0 .586.005 1.171 0 1.757-.006 1.06-.556 1.78-1.51 1.986-.075.017-.182.088-.193.152-.123.797-.224 1.593-.341 2.436h.485c.502 0 .998-.011 1.5.006.181.006.245-.058.277-.252.38-2.266.945-4.48 1.82-6.577.87-2.085 1.953-4.006 3.528-5.552.213-.211.427-.428.741-.445.475-.024.748.275.913.726v.392c-.112.182-.192.405-.336.54-.7.65-1.286 1.399-1.799 2.219-1.563 2.483-2.47 5.26-3.036 8.188-.139.709-.187 1.44-.4 2.12-.726 2.343-2.615 3.86-4.867 4-.636.041-1.281-.152-1.9.153-.123.058-.283.052-.427.052-2.562 0-5.129.018-7.69-.006-1.014-.011-1.836-.52-2.476-1.376-.486-.656-.668-1.423-.753-2.26-.155-1.436-.39-2.865-.582-4.294-.021-.14-.064-.199-.197-.228a2.248 2.248 0 01-.576-.193c-.54-.276-.8-.791-.95-1.394C2 17.492 2 16.655 2 15.823zm1.708 2.255h15.038c.07 0 .14.018.203-.006.053-.017.128-.076.128-.123.01-.609.005-1.218.005-1.833H3.708v1.962zm4.584 1.874c.053.68.101 1.336.155 1.992.101 1.364.202 2.735.314 4.1.006.064.086.17.134.17.539.011 1.078.005 1.622.005v-6.273c-.742.006-1.467.006-2.225.006zm-.635-8.393c.064.814.128 1.6.176 2.384.01.21.064.287.267.281.736-.011 1.473-.006 2.21-.006.074 0 .143-.011.218-.017v-2.642H7.657zm7.274 2.642c.064-.89.133-1.757.197-2.636h-2.86v2.636h2.663zm-.625 10.203c1.66 2.348 4.755 1.92 5.908 0h-5.908zm-7.252 1.68c-.16-2.079-.315-4.1-.465-6.12H5.426c.214 1.617.411 3.215.64 4.809.086.597.433 1.019.988 1.311zm7.434-6.126h-2.231v2.823c.64-.492 1.36-.152 2.039-.298.064-.838.128-1.664.192-2.525zm2.145-5.74c.406 0 .79-.017 1.174.006.256.012.422-.035.411-.369-.005-.135.037-.275.053-.41.086-.62.171-1.241.256-1.88H16.83c-.064.885-.128 1.745-.197 2.653zM5.949 11.565H4.252c.117.855.23 1.687.347 2.519.005.046.07.123.101.123.48.005.956.005 1.447.005-.064-.902-.134-1.768-.198-2.647zM17.017 22.5l.352-2.548h-1.174l-.192 2.548h1.014zm-3.613 3.713a284.76 284.76 0 00-1.142-1.792v1.792h1.142zM9.05 5.896c.074-.393.218-1.049.32-1.716a2.09 2.09 0 00-.048-.809c-.128-.486.042-.99.453-1.189.411-.205.88-.017 1.105.434.299.603.304 1.242.181 1.892-.09.486-.218.972-.282 1.464-.032.24.01.521.09.75.187.515.06 1.042-.346 1.276-.449.252-.93.07-1.175-.439-.229-.463-.304-.814-.298-1.663zm4.835-2.009l-.385 1.98c-.058.316-.037.614.097.913.208.457.037.99-.363 1.218-.417.234-.897.082-1.137-.369-.4-.744-.395-1.534-.235-2.343.064-.328.128-.65.208-.972.086-.34.096-.662-.032-1.001a.929.929 0 01.454-1.13c.395-.194.854-.03 1.078.386.219.41.299.85.315 1.318z" fill="#2F2F2F"/></svg>
